public/icons/Broken-Clouds.svg

<?xml version="1.0" encoding="UTF-8"?><svg id="Broken_Clouds" xmlns="http://www.w3.org/2000/svg" xmlns:xlink="http://www.w3.org/1999/xlink" viewBox="0 0 350 350"><defs><style>.cls-1{fill:url(#linear-gradient-2);}.cls-2{fill:url(#linear-gradient-6);}.cls-3{fill:url(#linear-gradient-5);}.cls-4{fill:url(#linear-gradient-3);}.cls-5{fill:url(#linear-gradient);}.cls-6{fill:#6aa3aa;}.cls-7{fill:#cceff2;}.cls-8{fill:url(#linear-gradient-4);}</style><linearGradient id="linear-gradient" x1="163.57" y1="160.86" x2="163.57" y2="110.09" gradientUnits="userSpaceOnUse"><stop offset="0" stop-color="#6aa3aa" stop-opacity="0"/><stop offset=".04" stop-color="#72a7ae" stop-opacity=".07"/><stop offset=".18" stop-color="#91b8bc" stop-opacity=".31"/><stop offset=".33" stop-color="#abc6c9" stop-opacity=".52"/><stop offset=".47" stop-color="#c0d1d3" stop-opacity=".7"/><stop offset=".61" stop-color="#d0dadb" stop-opacity=".83"/><stop offset=".75" stop-color="#dce0e1" stop-opacity=".92"/><stop offset=".88" stop-color="#e3e4e4" stop-opacity=".98"/><stop offset="1" stop-color="#e6e6e6"/></linearGradient><linearGradient id="linear-gradient-2" x1="217.87" y1="188.03" x2="217.87" y2="137.89" xlink:href="#linear-gradient"/><linearGradient id="linear-gradient-3" x1="112.75" y1="261.01" x2="112.75" y2="210.87" xlink:href="#linear-gradient"/><linearGradient id="linear-gradient-4" x1="173.83" y1="207.58" x2="325" y2="207.58" gradientTransform="translate(498.83 415.16) rotate(-180)" gradientUnits="userSpaceOnUse"><stop offset="0" stop-color="#c3cdd8"/><stop offset=".32" stop-color="#a7c0c9" stop-opacity=".69"/><stop offset="1" stop-color="#6aa3aa" stop-opacity="0"/></linearGradient><linearGradient id="linear-gradient-5" x1="27.87" y1="172.39" x2="132.12" y2="172.39" gradientTransform="translate(159.99 344.79) rotate(-180)" xlink:href="#linear-gradient-4"/><linearGradient id="linear-gradient-6" x1="153.84" y1="195.85" x2="277.22" y2="195.85" gradientTransform="matrix(1, 0, 0, 1, 0, 0)" xlink:href="#linear-gradient-4"/></defs><g><circle class="cls-6" cx="162.53" cy="175" r="87.75"/><path class="cls-5" d="m278.89,160.86c4.86,0,8.16-5.02,6.14-9.44-2.81-6.15-7.73-11.13-13.84-14.01-2.25-10.39-12.65-18.25-25.16-18.25-4.61,0-8.93,1.07-12.67,2.94-5.32-4.46-12.18-7.14-19.66-7.14-11.6,0-21.69,6.44-26.9,15.95-5.6-4.99-13.66-8.13-22.61-8.13-5.41,0-10.49,1.15-14.9,3.15-5.91-9.51-16.44-15.84-28.46-15.84-8.18,0-15.66,2.93-21.48,7.8-4.08-2.04-8.8-3.21-13.84-3.21-13.66,0-25.03,8.58-27.48,19.93-7.55,3.56-13.44,10.05-16.2,18.01-1.29,3.72,1.5,7.61,5.44,7.61l231.62.63Z"/><path class="cls-1" d="m275.42,158.71c-5.6-4.99-13.66-8.13-22.61-8.13-5.41,0-10.49,1.15-14.9,3.15-5.91-9.51-16.44-15.84-28.46-15.84-8.18,0-15.66,2.93-21.48,7.8-4.08-2.04-8.8-3.21-13.84-3.21-13.66,0-25.03,8.58-27.48,19.93-7.55,3.56-13.44,10.05-16.2,18.01-1.29,3.72,1.5,7.61,5.44,7.61l162.99-1.1c4.86,0,8.16-5.02,6.14-9.44-2.81-6.15-7.73-11.13-13.84-14.01,0,0-6.11-4.55-15.76-4.76Z"/><path class="cls-4" d="m170.29,231.69c-5.6-4.99-13.66-8.13-22.61-8.13-5.41,0-10.49,1.15-14.9,3.15-5.91-9.51-16.44-15.84-28.46-15.84-8.18,0-15.66,2.93-21.48,7.8-4.08-2.04-8.8-3.21-13.84-3.21-13.66,0-25.03,8.58-27.48,19.93-7.55,3.56-13.44,10.05-16.2,18.01-1.29,3.72,1.5,7.61,5.44,7.61l162.99-1.1c4.86,0,8.16-5.02,6.14-9.44-2.81-6.15-7.73-11.13-13.84-14.01,0,0-6.11-4.55-15.76-4.76Z"/><rect class="cls-8" x="173.83" y="204.54" width="151.17" height="6.08" transform="translate(498.83 415.16) rotate(180)"/><rect class="cls-3" x="27.87" y="169.79" width="104.26" height="5.21" transform="translate(159.99 344.79) rotate(180)"/><rect class="cls-2" x="153.84" y="190.64" width="123.37" height="10.43"/></g><path class="cls-7" d="m283.54,235.7c-18.28-5.63-37.3-8.8-56.42-9.39-9.01-.28-18.22-.24-27.16,1.08-7.6,1.12-15.63,3.84-20.47,10.15-2.38,3.1-3.57,7.1-2.23,10.91,1.22,3.46,3.96,6.18,7.1,7.98,3.73,2.14,7.97,2.77,12.19,3.14,2.31.2,4.64.32,6.95.57,2.06.23,4.31.49,6.21,1.39,1.3.62,2.78,1.71,2.55,3.35-.22,1.5-1.82,2.45-3.05,3.05-1.73.84-3.67,1.16-5.54,1.5-2.11.38-4.23.66-6.37.87-8.75.83-17.54.45-26.31.41-8.5-.03-17.11.25-25.39,2.36-4.01,1.03-8.17,2.44-11.72,4.61-3.15,1.92-5.7,5.12-4.78,9.01.37,1.56,1.37,2.93,2.81,3.64,1.73.85,3.25-1.73,1.51-2.59-1.33-.66-1.73-2.15-1.44-3.54.37-1.77,1.94-3.04,3.41-3.93,3.47-2.11,7.49-3.43,11.41-4.41,8.04-1.99,16.38-2.19,24.62-2.15,8.41.04,16.85.38,25.24-.36,3.95-.35,8.17-.74,11.96-1.99,2.91-.96,6.18-2.86,6.61-6.19.48-3.7-2.85-6.06-5.99-7.02-4.13-1.27-8.64-1.23-12.91-1.61s-8.09-1.07-11.54-3.39c-2.76-1.85-5.18-4.81-5.1-8.29.08-3.87,3.15-7.15,6.13-9.26s6.65-3.55,10.32-4.43c8.11-1.95,16.78-1.98,25.08-1.96,18.55.05,37.06,2.57,54.95,7.47,2.2.6,4.4,1.25,6.58,1.92,1.85.57,2.64-2.32.8-2.89h0Z"/></svg>

<svg width="350" height="350" viewBox="0 0 350 350" fill="none" xmlns="http://www.w3.org/2000/svg">
<path d="M162.53 262.75C210.993 262.75 250.28 223.463 250.28 175C250.28 126.537 210.993 87.25 162.53 87.25C114.067 87.25 74.78 126.537 74.78 175C74.78 223.463 114.067 262.75 162.53 262.75Z" fill="#4E8EBC"/>
<path d="M278.89 160.86C283.75 160.86 287.05 155.84 285.03 151.42C282.22 145.27 277.3 140.29 271.19 137.41C268.94 127.02 258.54 119.16 246.03 119.16C241.42 119.16 237.1 120.23 233.36 122.1C228.04 117.64 221.18 114.96 213.7 114.96C202.1 114.96 192.01 121.4 186.8 130.91C181.2 125.92 173.14 122.78 164.19 122.78C158.78 122.78 153.7 123.93 149.29 125.93C143.38 116.42 132.85 110.09 120.83 110.09C112.65 110.09 105.17 113.02 99.3501 117.89C95.2701 115.85 90.5501 114.68 85.5101 114.68C71.8501 114.68 60.4801 123.26 58.0301 134.61C50.4801 138.17 44.5901 144.66 41.8301 152.62C40.5401 156.34 43.3301 160.23 47.2701 160.23L278.89 160.86Z" fill="url(#paint0_linear_45_26)"/>
<path d="M275.42 158.71C269.82 153.72 261.76 150.58 252.81 150.58C247.4 150.58 242.32 151.73 237.91 153.73C232 144.22 221.47 137.89 209.45 137.89C201.27 137.89 193.79 140.82 187.97 145.69C183.89 143.65 179.17 142.48 174.13 142.48C160.47 142.48 149.1 151.06 146.65 162.41C139.1 165.97 133.21 172.46 130.45 180.42C129.16 184.14 131.95 188.03 135.89 188.03L298.88 186.93C303.74 186.93 307.04 181.91 305.02 177.49C302.21 171.34 297.29 166.36 291.18 163.48C291.18 163.48 285.07 158.93 275.42 158.72V158.71Z" fill="url(#paint1_linear_45_26)"/>
<path d="M170.29 231.69C164.69 226.7 156.63 223.56 147.68 223.56C142.27 223.56 137.19 224.71 132.78 226.71C126.87 217.2 116.34 210.87 104.32 210.87C96.1401 210.87 88.6601 213.8 82.8401 218.67C78.7601 216.63 74.0401 215.46 69.0001 215.46C55.3401 215.46 43.9701 224.04 41.5201 235.39C33.9701 238.95 28.0801 245.44 25.3201 253.4C24.0301 257.12 26.8201 261.01 30.7601 261.01L193.75 259.91C198.61 259.91 201.91 254.89 199.89 250.47C197.08 244.32 192.16 239.34 186.05 236.46C186.05 236.46 179.94 231.91 170.29 231.7V231.69Z" fill="url(#paint2_linear_45_26)"/>
<path d="M173.83 210.62L325 210.62V204.54L173.83 204.54V210.62Z" fill="url(#paint3_linear_45_26)"/>
<path d="M27.8601 175H132.12V169.79H27.8601V175Z" fill="url(#paint4_linear_45_26)"/>
<path d="M277.21 190.64H153.84V201.07H277.21V190.64Z" fill="url(#paint5_linear_45_26)"/>
<path d="M283.54 235.7C265.26 230.07 246.24 226.9 227.12 226.31C218.11 226.03 208.9 226.07 199.96 227.39C192.36 228.51 184.33 231.23 179.49 237.54C177.11 240.64 175.92 244.64 177.26 248.45C178.48 251.91 181.22 254.63 184.36 256.43C188.09 258.57 192.33 259.2 196.55 259.57C198.86 259.77 201.19 259.89 203.5 260.14C205.56 260.37 207.81 260.63 209.71 261.53C211.01 262.15 212.49 263.24 212.26 264.88C212.04 266.38 210.44 267.33 209.21 267.93C207.48 268.77 205.54 269.09 203.67 269.43C201.56 269.81 199.44 270.09 197.3 270.3C188.55 271.13 179.76 270.75 170.99 270.71C162.49 270.68 153.88 270.96 145.6 273.07C141.59 274.1 137.43 275.51 133.88 277.68C130.73 279.6 128.18 282.8 129.1 286.69C129.47 288.25 130.47 289.62 131.91 290.33C133.64 291.18 135.16 288.6 133.42 287.74C132.09 287.08 131.69 285.59 131.98 284.2C132.35 282.43 133.92 281.16 135.39 280.27C138.86 278.16 142.88 276.84 146.8 275.86C154.84 273.87 163.18 273.67 171.42 273.71C179.83 273.75 188.27 274.09 196.66 273.35C200.61 273 204.83 272.61 208.62 271.36C211.53 270.4 214.8 268.5 215.23 265.17C215.71 261.47 212.38 259.11 209.24 258.15C205.11 256.88 200.6 256.92 196.33 256.54C192.06 256.16 188.24 255.47 184.79 253.15C182.03 251.3 179.61 248.34 179.69 244.86C179.77 240.99 182.84 237.71 185.82 235.6C188.8 233.49 192.47 232.05 196.14 231.17C204.25 229.22 212.92 229.19 221.22 229.21C239.77 229.26 258.28 231.78 276.17 236.68C278.37 237.28 280.57 237.93 282.75 238.6C284.6 239.17 285.39 236.28 283.55 235.71L283.54 235.7Z" fill="#CCEFF2"/>
<defs>
<linearGradient id="paint0_linear_45_26" x1="163.57" y1="160.86" x2="163.57" y2="110.09" gradientUnits="userSpaceOnUse">
<stop stop-color="#6AA3AA" stop-opacity="0"/>
<stop offset="0.04" stop-color="#72A7AE" stop-opacity="0.07"/>
<stop offset="0.18" stop-color="#91B8BC" stop-opacity="0.31"/>
<stop offset="0.33" stop-color="#ABC6C9" stop-opacity="0.52"/>
<stop offset="0.47" stop-color="#C0D1D3" stop-opacity="0.7"/>
<stop offset="0.61" stop-color="#D0DADB" stop-opacity="0.83"/>
<stop offset="0.75" stop-color="#DCE0E1" stop-opacity="0.92"/>
<stop offset="0.88" stop-color="#E3E4E4" stop-opacity="0.98"/>
<stop offset="1" stop-color="#E6E6E6"/>
</linearGradient>
<linearGradient id="paint1_linear_45_26" x1="217.87" y1="188.03" x2="217.87" y2="137.89" gradientUnits="userSpaceOnUse">
<stop stop-color="#6AA3AA" stop-opacity="0"/>
<stop offset="0.04" stop-color="#72A7AE" stop-opacity="0.07"/>
<stop offset="0.18" stop-color="#91B8BC" stop-opacity="0.31"/>
<stop offset="0.33" stop-color="#ABC6C9" stop-opacity="0.52"/>
<stop offset="0.47" stop-color="#C0D1D3" stop-opacity="0.7"/>
<stop offset="0.61" stop-color="#D0DADB" stop-opacity="0.83"/>
<stop offset="0.75" stop-color="#DCE0E1" stop-opacity="0.92"/>
<stop offset="0.88" stop-color="#E3E4E4" stop-opacity="0.98"/>
<stop offset="1" stop-color="#E6E6E6"/>
</linearGradient>
<linearGradient id="paint2_linear_45_26" x1="112.75" y1="261.01" x2="112.75" y2="210.87" gradientUnits="userSpaceOnUse">
<stop stop-color="#6AA3AA" stop-opacity="0"/>
<stop offset="0.04" stop-color="#72A7AE" stop-opacity="0.07"/>
<stop offset="0.18" stop-color="#91B8BC" stop-opacity="0.31"/>
<stop offset="0.33" stop-color="#ABC6C9" stop-opacity="0.52"/>
<stop offset="0.47" stop-color="#C0D1D3" stop-opacity="0.7"/>
<stop offset="0.61" stop-color="#D0DADB" stop-opacity="0.83"/>
<stop offset="0.75" stop-color="#DCE0E1" stop-opacity="0.92"/>
<stop offset="0.88" stop-color="#E3E4E4" stop-opacity="0.98"/>
<stop offset="1" stop-color="#E6E6E6"/>
</linearGradient>
<linearGradient id="paint3_linear_45_26" x1="173.83" y1="207.58" x2="325" y2="207.58" gradientUnits="userSpaceOnUse">
<stop stop-color="#C3CDD8"/>
<stop offset="0.32" stop-color="#A7C0C9" stop-opacity="0.69"/>
<stop offset="1" stop-color="#6AA3AA" stop-opacity="0"/>
</linearGradient>
<linearGradient id="paint4_linear_45_26" x1="27.8701" y1="172.39" x2="132.12" y2="172.39" gradientUnits="userSpaceOnUse">
<stop stop-color="#C3CDD8"/>
<stop offset="0.32" stop-color="#A7C0C9" stop-opacity="0.69"/>
<stop offset="1" stop-color="#6AA3AA" stop-opacity="0"/>
</linearGradient>
<linearGradient id="paint5_linear_45_26" x1="153.84" y1="195.85" x2="277.22" y2="195.85" gradientUnits="userSpaceOnUse">
<stop stop-color="#C3CDD8"/>
<stop offset="0.32" stop-color="#A7C0C9" stop-opacity="0.69"/>
<stop offset="1" stop-color="#6AA3AA" stop-opacity="0"/>
</linearGradient>
</defs>
</svg>
